X:1
T:Katowice, 98.98 D
T:Katowice, 98.98 D
T:Earl Leroy Woslagel, 1916, alt.
T:Public Domain Courtesy of the Cyber Hymnal™
C:Earl Leroy Woslagel, 1916, alt.
Z:Public Domain
Z:Courtesy of the Cyber Hymnal™
%%score ( 1 2 ) ( 3 4 )
L:1/8
Q:1/4=92
M:none
K:Eb
V:1 treble 
V:2 treble 
V:3 bass 
V:4 bass 
V:1
 [EB] | [EB]>[EB][EB][E=A] [EB][Ec] | [EB]3 [EG]2 [EG]/[EA]/ | [DB]2 [DF][DF] [EG][FA] | %4
 [EG]3- [EG]2 E | [Ec]>[Ec][Ec][Ec] [EA][Ec] | [EB]3 [EG]2 [EG] | [EF]2 [EF]/[EF]/[EF] [EG][E=A] | %8
 [DB]3- [DB]2 [AB] | [Ad]/[Ad]/ z [Ad][Ad] [Ac][AB] | [^Fc]3 [GB]2 [EG] | %11
 [DB]>[DF][DF][DF] [EG][FA] | [EG]3- [EG]2 E | [Ec][Ec][Ec][Ec] [Ed][Ee] | %14
 [Ee]3 !fermata![E=A]2 [Ec] | [EB]>[DA][EG][EG] [DG][DF] | E3- E2 |] %17
V:2
 x | x6 | x6 | x6 | x5 E | x6 | x6 | x6 | x6 | x6 | x6 | x6 | x5 E | x6 | x6 | x6 | E3- E2 |] %17
V:3
 [E,G,] | [E,G,]>[E,G,][E,G,][E,^F,] [E,G,][E,A,] | [E,G,]3 [E,B,]2 [E,G,] | %3
 [B,,F,]2 [B,,B,][B,,B,] [B,,B,][D,B,] | [E,B,]3- [E,B,]2 [E,G,] | A,>A,A,[A,,A,] [A,,C][A,,A,] | %6
 [E,G,]3 [E,B,]2 [E,B,] | [F,=A,]2 [F,A,]/[F,A,]/[F,A,] [F,B,][F,C] | [B,,B,]3- [B,,B,]2 [B,D] | %9
 [B,F]/[B,F]/ z [B,F][B,F] [B,E][B,D] | [E,E]3 [E,E]2 [E,B,] | %11
 [B,,B,]>[B,,B,][B,,B,][B,,B,] [B,,B,][B,,B,] | [E,B,]3- [E,B,]2 [E,G,] | %13
 [A,,A,][A,,A,][A,,A,]A, [A,B,][A,C] | [G,B,]3 !fermata![^F,C]2 [F,=A,] | %15
 [G,B,]>[F,B,][E,B,][C,=A,] [B,,B,][B,,_A,] | [E,G,]3- [E,G,]2 |] %17
V:4
 x | x6 | x6 | x6 | x6 | A,>A,A, x3 | x6 | x6 | x6 | x6 | x6 | x6 | x6 | x3 A, x2 | x6 | x6 | x5 |] %17

